svg/set/OTP/WM.svg

<?xml version="1.0" encoding="UTF-8" standalone="no"?>
<svg
   width="1000"
   height="1000"
   viewBox="0 0 1000 1000"
   version="1.1"
   xml:space="preserve"
   style="clip-rule:evenodd;fill-rule:evenodd;stroke-linejoin:round;stroke-miterlimit:2"
   id="svg2"
   xmlns="http://www.w3.org/2000/svg"
   xmlns:svg="http://www.w3.org/2000/svg"><defs
   id="defs2" />
    <g
   transform="translate(-4831.9967)"
   id="g2">
        <g
   id="WM"
   transform="translate(-0.333333)">
            <rect
   x="4832.3301"
   y="0"
   width="1000"
   height="1000"
   style="fill:none"
   id="rect1" />
            <g
   transform="translate(4833.3)"
   id="g1">
                <path
   d="m 4.8,83.557 h 986.933 c 0,0 -27.938,19.585 -72.723,164.088 l -37.095,0.186 v 501.278 h 39.231 c 0,0 24.118,113.031 70.461,162.676 H 5.149 c 0,0 23.645,-5.185 72.826,-164.104 h 36.413 V 684.76 H 60.005 V 312.592 h 54.383 V 248.751 H 77.502 c 0,0 -41.367,-141.702 -72.702,-165.194 z m 246.673,598.195 h -82.199 v 67.957 h 82.199 z M 827.156,244.71 H 744.19 v 504.999 h 82.966 z M 292.079,362.417 H 109.59 v 271.012 h 182.489 z m -117.667,151.07 c -15.148,-9.335 -25.255,-26.076 -25.255,-45.16 0,-29.255 23.751,-53.006 53.006,-53.006 29.255,0 53.007,23.751 53.007,53.006 0,19.152 -10.179,35.945 -25.418,45.26 l 23.833,68.382 H 150.544 Z M 251.473,244.71 h -82.199 v 70.806 h 82.199 z m 384.37,0 h -82.966 v 504.999 h 82.966 z M 115.108,798.888 96.702,863.311 h 802.629 l -18.407,-64.423 z m 0,-601.117 h 765.816 l 18.407,-64.424 H 96.702 Z m 327.288,46.939 h -82.965 v 504.999 h 82.965 z"
   id="path1" />
            </g>
        </g>
    </g>
</svg>

<?xml version="1.0" encoding="UTF-8" standalone="no"?>
<!DOCTYPE svg PUBLIC "-//W3C//DTD SVG 1.1//EN" "http://www.w3.org/Graphics/SVG/1.1/DTD/svg11.dtd">
<svg width="100%" height="100%" viewBox="0 0 1000 1000" version="1.1" xmlns="http://www.w3.org/2000/svg" xmlns:xlink="http://www.w3.org/1999/xlink" xml:space="preserve" xmlns:serif="http://www.serif.com/" style="fill-rule:evenodd;clip-rule:evenodd;stroke-linejoin:round;stroke-miterlimit:2;">
    <g transform="matrix(1,0,0,1,-4832,0)">
        <g id="WM" transform="matrix(1,0,0,1,-0.333333,0)">
            <rect x="4832.33" y="0" width="1000" height="1000" style="fill:none;"/>
            <g transform="matrix(1,0,0,1,4833.3,0)">
                <path d="M4.8,83.557L991.733,83.557C991.733,83.557 963.795,103.142 919.01,247.645L881.915,247.831L881.915,749.109L921.146,749.109C921.146,749.109 945.264,862.14 991.607,911.785L5.149,911.785C5.149,911.785 28.794,906.6 77.975,747.681L114.388,747.681L114.388,684.76L60.005,684.76L60.005,312.592L114.388,312.592L114.388,248.751L77.502,248.751C77.502,248.751 36.135,107.049 4.8,83.557ZM251.473,681.752L169.274,681.752L169.274,749.709L251.473,749.709L251.473,681.752ZM827.156,244.71L744.19,244.71L744.19,749.709L827.156,749.709L827.156,244.71ZM292.079,362.417L109.59,362.417L109.59,633.429L292.079,633.429L292.079,362.417ZM174.412,513.487C159.264,504.152 149.157,487.411 149.157,468.327C149.157,439.072 172.908,415.321 202.163,415.321C231.418,415.321 255.17,439.072 255.17,468.327C255.17,487.479 244.991,504.272 229.752,513.587L253.585,581.969L150.544,581.969L174.412,513.487ZM251.473,244.71L169.274,244.71L169.274,315.516L251.473,315.516L251.473,244.71ZM635.843,244.71L552.877,244.71L552.877,749.709L635.843,749.709L635.843,244.71ZM115.108,798.888L96.702,863.311L899.331,863.311L880.924,798.888L115.108,798.888ZM115.108,197.771L880.924,197.771L899.331,133.347L96.702,133.347L115.108,197.771ZM442.396,244.71L359.431,244.71L359.431,749.709L442.396,749.709L442.396,244.71Z"/>
            </g>
        </g>
    </g>
</svg>
